lib/flags/l/PAK.svg

<svg xmlns="http://www.w3.org/2000/svg" fill="none" viewBox="0 0 32 24"><mask id="PAK_svg__a" width="32" height="24" x="0" y="0" mask-type="alpha" maskUnits="userSpaceOnUse"><path fill="#fff" d="M0 0H32V24H0z"/></mask><g fill-rule="evenodd" clip-rule="evenodd" mask="url(#PAK_svg__a)"><path fill="#2F8D00" d="M8 0H32V24H8V0Z"/><path fill="#F7FCFF" d="M0 0H8V24H0V0Z"/><path fill="#F1F9FF" d="M22.4294 15.3062C22.4294 15.3062 17.9636 16.4705 14.419 14.0955C10.8743 11.7206 12.6562 6.24772 12.6562 6.24772C10.8072 6.51677 7.90356 13.2626 12.584 16.6461C17.2644 20.0295 21.7482 16.7772 22.4294 15.3062ZM17.4738 8.86645L15.1023 10.0261L17.6041 10.4717L17.9418 12.9172L19.3589 10.8344L22.1474 11.0224L19.9633 9.39352L21.126 7.21716L18.9516 8.21302L17.3364 6.69434L17.4738 8.86645Z"/></g></svg>

<svg xmlns="http://www.w3.org/2000/svg" fill="none" viewBox="0 0 32 24"><mask id="PAK_svg__a" width="32" height="24" x="0" y="0" maskUnits="userSpaceOnUse"><path fill="#fff" d="M0 0h32v24H0z"/></mask><g fill-rule="evenodd" clip-rule="evenodd" mask="url(#PAK_svg__a)"><path fill="#2F8D00" d="M8 0h24v24H8V0z"/><path fill="#F7FCFF" d="M0 0h8v24H0V0z"/><path fill="#F1F9FF" d="M22.43 15.306s-4.466 1.165-8.011-1.21c-3.545-2.375-1.763-7.848-1.763-7.848-1.849.269-4.752 7.015-.072 10.398 4.68 3.384 9.164.131 9.845-1.34zm-4.956-6.44l-2.372 1.16 2.502.446.338 2.445 1.417-2.083 2.788.189-2.184-1.63 1.163-2.176-2.174.996-1.616-1.519.138 2.172z"/></g></svg>
